public/image/icon/iconGit.svg

<svg width="24" height="24" xmlns="http://www.w3.org/2000/svg" fill-rule="evenodd" clip-rule="evenodd"><path d="M19 24h-14c-2.761 0-5-2.239-5-5v-14c0-2.761 2.239-5 5-5h14c2.762 0 5 2.239 5 5v14c0 2.761-2.238 5-5 5zm.699-12.713l-6.986-6.985c-.202-.201-.466-.302-.729-.302-.264 0-.527.101-.729.302l-1.45 1.451 1.84 1.84c.428-.144.918-.048 1.259.293.342.343.439.837.29 1.267l1.773 1.773c.43-.148.925-.052 1.268.291.478.479.478 1.254 0 1.734-.48.479-1.256.479-1.735 0-.36-.361-.449-.89-.267-1.334l-1.654-1.654v4.353c.117.058.227.135.325.232.478.478.478 1.254 0 1.734-.479.479-1.256.479-1.734 0-.479-.48-.479-1.256 0-1.734.118-.119.255-.208.401-.268v-4.393c-.146-.059-.283-.148-.401-.267-.363-.363-.451-.895-.264-1.341l-1.814-1.814-4.79 4.79c-.201.202-.302.465-.302.729 0 .263.101.527.302.729l6.986 6.985c.201.201.465.301.728.301.264 0 .527-.1.729-.301l6.954-6.952c.201-.202.301-.466.301-.729 0-.264-.1-.528-.301-.729v-.001z"/></svg>

<?xml version="1.0" standalone="no"?><!-- Generator: Gravit.io --><svg xmlns="http://www.w3.org/2000/svg" xmlns:xlink="http://www.w3.org/1999/xlink" style="isolation:isolate" viewBox="0 0 24 24" width="24" height="24"><defs><clipPath id="_clipPath_FSQU7BPPC9tg255Pt5d9qNQl2zNTjAh5"><rect width="24" height="24"/></clipPath></defs><g clip-path="url(#_clipPath_FSQU7BPPC9tg255Pt5d9qNQl2zNTjAh5)"><path d=" M 19 24 L 5 24 C 2.239 24 0 21.761 0 19 L 0 5 C 0 2.239 2.239 0 5 0 L 19 0 C 21.762 0 24 2.239 24 5 L 24 19 C 24 21.761 21.762 24 19 24 Z  M 19.699 11.287 L 12.713 4.302 C 12.511 4.101 12.247 4 11.984 4 C 11.72 4 11.457 4.101 11.255 4.302 L 9.805 5.753 L 11.645 7.593 C 12.073 7.449 12.563 7.545 12.904 7.886 C 13.246 8.229 13.343 8.723 13.194 9.153 L 14.967 10.926 C 15.397 10.778 15.892 10.874 16.235 11.217 C 16.713 11.696 16.713 12.471 16.235 12.951 C 15.755 13.43 14.979 13.43 14.5 12.951 C 14.14 12.59 14.051 12.061 14.233 11.617 L 12.579 9.963 L 12.579 14.316 C 12.696 14.374 12.806 14.451 12.904 14.548 C 13.382 15.026 13.382 15.802 12.904 16.282 C 12.425 16.761 11.648 16.761 11.17 16.282 C 10.691 15.802 10.691 15.026 11.17 14.548 C 11.288 14.429 11.425 14.34 11.571 14.28 L 11.571 9.887 C 11.425 9.828 11.288 9.739 11.17 9.62 C 10.807 9.257 10.719 8.725 10.906 8.279 L 9.092 6.465 L 4.302 11.255 C 4.101 11.457 4 11.72 4 11.984 C 4 12.247 4.101 12.511 4.302 12.713 L 11.288 19.698 C 11.489 19.899 11.753 19.999 12.016 19.999 C 12.28 19.999 12.543 19.899 12.745 19.698 L 19.699 12.746 C 19.9 12.544 20 12.28 20 12.017 C 20 11.753 19.9 11.489 19.699 11.288 L 19.699 11.287 L 19.699 11.287 Z " fill-rule="evenodd" fill="rgb(241,78,50)"/></g></svg>
